web/packages/design/src/ResourceIcon/assets/calendly.svg

<svg width="72" height="72" viewBox="0 0 72 72" fill="none" xmlns="http://www.w3.org/2000/svg">
<g clip-path="url(#clip0_15936_6865)">
<path d="M62.522 39.2558C65.1271 39.7295 67.5907 40.7886 69.727 42.3532C71.7808 43.8737 71.3834 45.5908 71.0718 46.6072C68.5325 54.8431 63.1229 61.8947 55.8259 66.4806C48.5289 71.0666 39.8289 72.8826 31.3066 71.5987C22.7844 70.3147 15.0056 66.016 9.38368 59.4837C3.76179 52.9513 0.669922 44.6189 0.669922 36.0005C0.669922 27.3821 3.76179 19.0496 9.38368 12.5173C15.0056 5.98499 22.7844 1.68627 31.3066 0.402316C39.8289 -0.881642 48.5289 0.934364 55.8259 5.52034C63.1229 10.1063 68.5325 17.1579 71.0718 25.3938C71.3834 26.4102 71.7808 28.1273 69.727 29.6477C67.5906 31.2117 65.127 32.2701 62.522 32.7431C62.5208 32.7236 62.5208 32.704 62.522 32.6845C62.2971 31.4345 61.9468 30.2104 61.4762 29.0308C63.6284 28.6991 65.6704 27.8588 67.4327 26.5796C67.4314 26.5762 67.4299 26.5725 67.4284 26.5688C67.4225 26.5544 67.4159 26.5381 67.4159 26.5231C65.1474 19.1776 60.3194 12.8894 53.8089 8.80091C47.2984 4.71237 39.5373 3.09473 31.9355 4.24182C24.3337 5.38892 17.3956 9.22465 12.3814 15.0522C7.36717 20.8798 4.60961 28.3126 4.60961 36.0005C4.60961 43.6883 7.36717 51.1211 12.3814 56.9487C17.3956 62.7763 24.3337 66.6121 31.9355 67.7592C39.5373 68.9062 47.2984 67.2886 53.8089 63.2001C60.3194 59.1115 65.1474 52.8234 67.4159 45.4778C67.4177 45.4726 67.4197 45.4673 67.4218 45.4619C67.4272 45.4478 67.4327 45.4335 67.4327 45.4214C65.6701 44.1423 63.6283 43.3014 61.4762 42.9681C61.9473 41.7901 62.2977 40.5673 62.522 39.3186V39.2558Z" fill="#006BFF"/>
<path d="M49.095 46.6888C46.8091 48.7175 43.9543 51.2418 38.7779 51.2418H35.6826C31.9368 51.2418 28.5299 49.8803 26.0913 47.4124C23.7091 45.001 22.3978 41.7007 22.3978 38.1181V33.8829C22.3978 30.3003 23.7091 27 26.0913 24.5886C28.5299 22.1207 31.9368 20.7612 35.6826 20.7612H38.7779C43.9605 20.7612 46.8091 23.2835 49.095 25.3122L49.1301 25.3431C51.4891 27.4216 53.5432 29.2315 58.977 29.2315C59.8099 29.2313 60.6414 29.1649 61.4638 29.0329L61.4449 28.9848C61.1178 28.1725 60.7342 27.3842 60.2967 26.6256L56.6472 20.3032C55.0014 17.453 52.6344 15.0863 49.7841 13.4409C46.9337 11.7954 43.7005 10.9292 40.4093 10.9294H33.1081C29.8169 10.9292 26.5836 11.7954 23.7333 13.4409C20.8829 15.0863 18.5159 17.453 16.8701 20.3032L13.2206 26.6256C11.5753 29.4761 10.7092 32.7093 10.7092 36.0005C10.7092 39.2917 11.5753 42.5249 13.2206 45.3753L16.8701 51.6978C18.5159 54.5479 20.8829 56.9147 23.7333 58.5601C26.5836 60.2055 29.8169 61.0717 33.1081 61.0716H40.4093C43.7005 61.0717 46.9337 60.2055 49.7841 58.5601C52.6344 56.9147 55.0014 54.5479 56.6472 51.6978L60.2967 45.3858C60.7342 44.6272 61.1178 43.8389 61.4449 43.0267L61.4638 42.9807C60.6418 42.8441 59.8102 42.7742 58.977 42.7715C53.5213 42.7715 51.4726 44.5856 49.1016 46.6851L49.095 46.6909V46.6888Z" fill="#006BFF"/>
<path d="M38.7779 24.599H35.6825C29.9813 24.599 26.2355 28.671 26.2355 33.8829V38.118C26.2355 43.3299 29.9813 47.4019 35.6825 47.4019H38.7779C42.505 47.4019 44.4285 45.6969 46.5496 43.8167C49.156 41.5064 52.0607 38.9316 58.977 38.9316C60.1655 38.9303 61.3516 39.0395 62.5199 39.2579C62.9005 37.1029 62.9005 34.898 62.5199 32.743C61.3514 32.9604 60.1654 33.0696 58.977 33.0693C52.0579 33.0693 49.1535 30.4942 46.5476 28.1836C44.4273 26.3037 42.5046 24.599 38.7779 24.599Z" fill="#006BFF"/>
<path d="M58.9767 29.24C59.8099 29.2373 60.6415 29.1674 61.4634 29.0309C61.934 30.2105 62.2843 31.4346 62.5091 32.6846V32.7432C61.3408 32.9608 60.1547 33.0693 58.9663 33.0673C52.05 33.0673 49.1453 30.4932 46.5389 28.1834C44.4178 26.3037 42.4943 24.5991 38.7671 24.5991H35.6718C29.9706 24.5991 26.2248 28.6711 26.2248 33.883V38.1265C26.2248 43.3384 29.9706 47.4125 35.6718 47.4125H38.7671C42.4939 47.4125 44.4166 45.7073 46.5369 43.8269C49.1428 41.5159 52.0472 38.9401 58.9663 38.9401C60.1547 38.9391 61.3406 39.0476 62.5091 39.2643C62.5103 39.2851 62.5103 39.3061 62.5091 39.327C62.2859 40.576 61.9355 41.7989 61.4634 42.9766C60.6411 42.8445 59.8096 42.7781 58.9767 42.7779C53.5411 42.7779 51.4874 44.589 49.1295 46.6684L49.0968 46.6972C46.8087 48.7259 43.9602 51.2482 38.7776 51.2482H35.6823C31.9344 51.2482 28.5296 49.8888 26.0909 47.4209C23.7088 45.0094 22.3975 41.7091 22.3975 38.1265V33.8913C22.3975 30.3087 23.7088 27.0084 26.0909 24.597C28.5296 22.1291 31.9344 20.7676 35.6823 20.7676H38.7776C43.9602 20.7676 46.8087 23.2919 49.0968 25.3206L49.101 25.3244C51.4709 27.4247 53.5192 29.24 58.9767 29.24Z" fill="#0AE8F0"/>
</g>
<defs>
<clipPath id="clip0_15936_6865">
<rect width="72" height="72" fill="white" transform="translate(0 0.000488281)"/>
</clipPath>
</defs>
</svg>

<svg xmlns="http://www.w3.org/2000/svg" width="72" height="72" fill="none" viewBox="0 0 72 72"><g clip-path="url(#a)"><path fill="#006bff" d="M62.522 39.256a17.5 17.5 0 0 1 7.205 3.097c2.054 1.52 1.656 3.238 1.345 4.254a36 36 0 1 1 0-21.213c.311 1.016.709 2.733-1.345 4.254a17.5 17.5 0 0 1-7.205 3.095v-.059a19 19 0 0 0-1.046-3.653 13.7 13.7 0 0 0 5.957-2.451l-.005-.011a.1.1 0 0 1-.012-.046 32.118 32.118 0 1 0 .006 18.939q.009-.022.01-.04a13.7 13.7 0 0 0-5.956-2.454c.471-1.178.822-2.4 1.046-3.65z"/><path fill="#006bff" d="M49.095 46.689c-2.286 2.029-5.14 4.553-10.317 4.553h-3.095c-3.746 0-7.153-1.362-9.592-3.83-2.382-2.411-3.693-5.711-3.693-9.294v-4.235c0-3.583 1.311-6.883 3.693-9.294 2.439-2.468 5.846-3.828 9.592-3.828h3.095c5.183 0 8.031 2.523 10.317 4.551l.035.031c2.36 2.079 4.413 3.889 9.847 3.889q1.251 0 2.487-.2l-.02-.047q-.49-1.219-1.147-2.36l-3.65-6.322A18.75 18.75 0 0 0 40.41 10.93h-7.3a18.75 18.75 0 0 0-16.239 9.374l-3.65 6.323a18.75 18.75 0 0 0 0 18.75l3.65 6.322a18.75 18.75 0 0 0 16.238 9.374h7.301a18.75 18.75 0 0 0 16.238-9.374l3.65-6.312a19 19 0 0 0 1.148-2.36l.019-.045a15.5 15.5 0 0 0-2.487-.21c-5.456 0-7.504 1.815-9.875 3.914l-.007.006z"/><path fill="#006bff" d="M38.778 24.599h-3.096c-5.7 0-9.447 4.072-9.447 9.284v4.235c0 5.212 3.746 9.284 9.447 9.284h3.096c3.727 0 5.65-1.705 7.772-3.585 2.606-2.31 5.51-4.885 12.427-4.885a19 19 0 0 1 3.543.326c.38-2.155.38-4.36 0-6.515a19.3 19.3 0 0 1-3.543.326c-6.92 0-9.823-2.575-12.43-4.885-2.12-1.88-4.042-3.585-7.77-3.585"/><path fill="#0ae8f0" d="M58.977 29.24a15.5 15.5 0 0 0 2.486-.21c.471 1.18.821 2.405 1.046 3.655v.058a19 19 0 0 1-3.543.324c-6.916 0-9.82-2.574-12.427-4.884-2.121-1.88-4.045-3.584-7.772-3.584h-3.095c-5.701 0-9.447 4.072-9.447 9.284v4.243c0 5.212 3.746 9.287 9.447 9.287h3.095c3.727 0 5.65-1.706 7.77-3.586 2.606-2.311 5.51-4.887 12.43-4.887a19.3 19.3 0 0 1 3.542.324v.063a18.6 18.6 0 0 1-1.046 3.65 16 16 0 0 0-2.486-.2c-5.436 0-7.49 1.812-9.847 3.891l-.033.03c-2.288 2.028-5.137 4.55-10.32 4.55h-3.095c-3.748 0-7.152-1.36-9.591-3.827-2.382-2.412-3.693-5.712-3.693-9.294V33.89c0-3.582 1.31-6.883 3.693-9.294 2.439-2.468 5.843-3.83 9.591-3.83h3.096c5.182 0 8.03 2.525 10.319 4.554l.004.003c2.37 2.1 4.418 3.916 9.876 3.916"/></g><defs><clipPath id="a"><path fill="#fff" d="M0 0h72v72H0z"/></clipPath></defs></svg>
